src/assets/tokens/BRLA.svg

<svg version="1.1" id="Layer_1" xmlns="http://www.w3.org/2000/svg" xmlns:xlink="http://www.w3.org/1999/xlink" x="0px" y="0px"
	 width="100%" viewBox="0 0 800 800" enable-background="new 0 0 800 800" xml:space="preserve">
<path fill="#022028" opacity="1.000000" stroke="none" 
	d="
M361.000000,1.000001 
	C387.354218,1.000000 413.708466,1.000000 440.739197,1.309227 
	C444.932556,2.361553 448.417297,3.355350 451.971069,3.809911 
	C500.367554,10.000330 546.074097,24.488308 589.142090,47.500366 
	C633.840515,71.383621 672.649231,102.450722 705.603333,140.964600 
	C726.166687,164.997192 743.678284,191.053909 757.981506,219.190002 
	C778.986084,260.508240 792.596313,304.179474 798.247620,350.269928 
	C798.693298,353.904480 800.060913,357.425964 801.000000,361.000000 
	C801.000000,387.354218 801.000000,413.708466 800.690796,440.739197 
	C799.515564,446.426178 798.552795,451.422150 797.798584,456.449402 
	C790.773438,503.277618 776.729187,547.747253 754.297974,589.600342 
	C731.237366,632.627441 701.526245,670.315857 664.869934,702.416199 
	C635.535645,728.104492 603.101562,749.172668 567.498657,765.308716 
	C530.684387,781.993774 492.350342,793.154785 452.227448,798.195190 
	C448.427490,798.672485 444.739807,800.043701 441.000000,801.000000 
	C414.645782,801.000000 388.291534,801.000000 361.260742,800.690857 
	C355.573853,799.515564 350.578064,798.552368 345.550903,797.798279 
	C298.722565,790.773926 254.253098,776.729553 212.400208,754.298157 
	C169.373093,731.237427 131.684723,701.526123 99.584091,664.869751 
	C73.895561,635.535522 52.827953,603.101257 36.691677,567.498352 
	C20.006395,530.684082 8.845632,492.350220 3.805712,452.227295 
	C3.328392,448.427368 1.956547,444.739746 1.000002,441.000000 
	C1.000000,414.645782 1.000000,388.291534 1.309186,361.260803 
	C2.484770,355.573853 3.448373,350.578003 4.202425,345.550751 
	C11.226375,298.722076 25.270796,254.252411 47.702629,212.399521 
	C70.763557,169.372849 100.474556,131.684280 137.131012,99.584381 
	C166.465317,73.896461 198.898743,52.827126 234.502304,36.692158 
	C271.316864,20.008389 309.650146,8.845017 349.773376,3.805930 
	C353.573120,3.328716 357.260468,1.956631 361.000000,1.000001 
M421.500000,330.927124 
	C396.417450,330.927124 371.334900,330.927124 345.932495,330.927124 
	C345.932495,333.714020 345.836792,335.700500 345.947052,337.675476 
	C347.292786,361.780090 348.102081,385.931763 350.169800,409.974945 
	C353.265869,445.975525 365.370972,479.035187 384.978180,509.376953 
	C405.581268,541.259766 433.532654,564.831238 467.146698,581.917847 
	C503.121277,600.204590 541.499329,609.845703 581.612549,612.741943 
	C590.323303,613.370911 599.118164,612.833801 608.299866,612.833801 
	C608.299866,610.687988 608.299866,609.046631 608.299866,607.405273 
	C608.299866,578.408081 608.179810,549.409912 608.416565,520.414673 
	C608.456665,515.502563 606.709351,514.367493 602.212769,514.021362 
	C588.102905,512.935364 573.978333,511.757812 559.954956,509.896240 
	C538.178711,507.005524 517.847229,499.120392 499.667450,487.257721 
	C479.255371,473.938416 467.378510,453.152618 457.145660,431.566803 
	C456.820953,430.881805 456.932098,429.990173 456.788696,428.750916 
	C458.831635,428.661682 460.623810,428.519745 462.416351,428.515625 
	C472.248657,428.493073 482.087891,428.742340 491.912262,428.461945 
	C530.610474,427.357483 562.242737,411.379028 585.672241,380.906982 
	C608.964966,350.612885 612.600464,315.478119 605.313354,279.154022 
	C597.369019,239.553818 572.929321,212.481796 537.195984,195.057144 
	C520.805786,187.064789 503.628021,183.522552 485.112335,183.615997 
	C392.123749,184.085327 299.131500,183.831223 206.140518,183.831223 
	C203.831100,183.831223 201.521683,183.831223 198.855682,183.831223 
	C198.855682,284.694824 198.855682,385.093781 198.855682,485.620697 
	C231.647781,485.620697 264.190338,485.620697 297.330383,485.620697 
	C297.330383,417.357147 297.330383,349.471832 297.330383,281.467377 
	C299.060852,281.340210 300.206573,281.182526 301.352295,281.182281 
	C363.512939,281.169922 425.673553,281.160980 487.834167,281.212250 
	C489.961334,281.214020 492.207428,281.502838 494.194763,282.220703 
	C504.135132,285.811493 512.446350,300.430145 510.522614,310.637268 
	C508.641602,320.617737 495.962097,330.915863 485.493896,330.922791 
	C464.495941,330.936646 443.497955,330.927063 421.500000,330.927124 
z"/>
<path fill="#000000" opacity="1.000000" stroke="none" 
	d="
M360.531342,1.000001 
	C357.260468,1.956631 353.573120,3.328716 349.773376,3.805930 
	C309.650146,8.845017 271.316864,20.008389 234.502304,36.692158 
	C198.898743,52.827126 166.465317,73.896461 137.131012,99.584381 
	C100.474556,131.684280 70.763557,169.372849 47.702629,212.399521 
	C25.270796,254.252411 11.226375,298.722076 4.202425,345.550751 
	C3.448373,350.578003 2.484770,355.573853 1.309186,360.792114 
	C1.000000,241.072922 1.000000,121.145859 1.000000,1.000000 
	C120.687469,1.000000 240.375076,1.000000 360.531342,1.000001 
z"/>
<path fill="#000000" opacity="1.000000" stroke="none" 
	d="
M801.000000,360.531342 
	C800.060913,357.425964 798.693298,353.904480 798.247620,350.269928 
	C792.596313,304.179474 778.986084,260.508240 757.981506,219.190002 
	C743.678284,191.053909 726.166687,164.997192 705.603333,140.964600 
	C672.649231,102.450722 633.840515,71.383621 589.142090,47.500366 
	C546.074097,24.488308 500.367554,10.000330 451.971069,3.809911 
	C448.417297,3.355350 444.932556,2.361553 441.207855,1.309227 
	C560.927063,1.000000 680.854065,1.000000 801.000000,1.000000 
	C801.000000,120.687469 801.000000,240.375076 801.000000,360.531342 
z"/>
<path fill="#000000" opacity="1.000000" stroke="none" 
	d="
M1.000002,441.468658 
	C1.956547,444.739746 3.328392,448.427368 3.805712,452.227295 
	C8.845632,492.350220 20.006395,530.684082 36.691677,567.498352 
	C52.827953,603.101257 73.895561,635.535522 99.584091,664.869751 
	C131.684723,701.526123 169.373093,731.237427 212.400208,754.298157 
	C254.253098,776.729553 298.722565,790.773926 345.550903,797.798279 
	C350.578064,798.552368 355.573853,799.515564 360.792114,800.690857 
	C241.072922,801.000000 121.145859,801.000000 1.000000,801.000000 
	C1.000000,681.312500 1.000000,561.624939 1.000002,441.468658 
z"/>
<path fill="#000000" opacity="1.000000" stroke="none" 
	d="
M441.468658,801.000000 
	C444.739807,800.043701 448.427490,798.672485 452.227448,798.195190 
	C492.350342,793.154785 530.684387,781.993774 567.498657,765.308716 
	C603.101562,749.172668 635.535645,728.104492 664.869934,702.416199 
	C701.526245,670.315857 731.237366,632.627441 754.297974,589.600342 
	C776.729187,547.747253 790.773438,503.277618 797.798584,456.449402 
	C798.552795,451.422150 799.515564,446.426178 800.690796,441.207855 
	C801.000000,560.927063 801.000000,680.854126 801.000000,801.000000 
	C681.312500,801.000000 561.624939,801.000000 441.468658,801.000000 
z"/>
<path fill="#00E07C" opacity="1.000000" stroke="none" 
	d="
M422.000000,330.927124 
	C443.497955,330.927063 464.495941,330.936646 485.493896,330.922791 
	C495.962097,330.915863 508.641602,320.617737 510.522614,310.637268 
	C512.446350,300.430145 504.135132,285.811493 494.194763,282.220703 
	C492.207428,281.502838 489.961334,281.214020 487.834167,281.212250 
	C425.673553,281.160980 363.512939,281.169922 301.352295,281.182281 
	C300.206573,281.182526 299.060852,281.340210 297.330383,281.467377 
	C297.330383,349.471832 297.330383,417.357147 297.330383,485.620697 
	C264.190338,485.620697 231.647781,485.620697 198.855682,485.620697 
	C198.855682,385.093781 198.855682,284.694824 198.855682,183.831223 
	C201.521683,183.831223 203.831100,183.831223 206.140518,183.831223 
	C299.131500,183.831223 392.123749,184.085327 485.112335,183.615997 
	C503.628021,183.522552 520.805786,187.064789 537.195984,195.057144 
	C572.929321,212.481796 597.369019,239.553818 605.313354,279.154022 
	C612.600464,315.478119 608.964966,350.612885 585.672241,380.906982 
	C562.242737,411.379028 530.610474,427.357483 491.912262,428.461945 
	C482.087891,428.742340 472.248657,428.493073 462.416351,428.515625 
	C460.623810,428.519745 458.831635,428.661682 456.788696,428.750916 
	C456.932098,429.990173 456.820953,430.881805 457.145660,431.566803 
	C467.378510,453.152618 479.255371,473.938416 499.667450,487.257721 
	C517.847229,499.120392 538.178711,507.005524 559.954956,509.896240 
	C573.978333,511.757812 588.102905,512.935364 602.212769,514.021362 
	C606.709351,514.367493 608.456665,515.502563 608.416565,520.414673 
	C608.179810,549.409912 608.299866,578.408081 608.299866,607.405273 
	C608.299866,609.046631 608.299866,610.687988 608.299866,612.833801 
	C599.118164,612.833801 590.323303,613.370911 581.612549,612.741943 
	C541.499329,609.845703 503.121277,600.204590 467.146698,581.917847 
	C433.532654,564.831238 405.581268,541.259766 384.978180,509.376953 
	C365.370972,479.035187 353.265869,445.975525 350.169800,409.974945 
	C348.102081,385.931763 347.292786,361.780090 345.947052,337.675476 
	C345.836792,335.700500 345.932495,333.714020 345.932495,330.927124 
	C371.334900,330.927124 396.417450,330.927124 422.000000,330.927124 
z"/>
</svg>

<svg xmlns="http://www.w3.org/2000/svg" viewBox="0 0 800 800"><path fill="#022028" d="M361 1c26.354 0 52.708 0 79.74.31 4.193 1.052 7.677 2.045 11.231 2.5C500.368 10 546.074 24.488 589.142 47.5c44.699 23.884 83.507 54.95 116.461 93.465 20.564 24.032 38.075 50.089 52.379 78.225 21.004 41.318 34.614 84.99 40.266 131.08.445 3.634 1.813 7.156 2.752 10.73 0 26.354 0 52.708-.31 79.74-1.174 5.686-2.137 10.682-2.891 15.71-7.026 46.828-21.07 91.297-43.501 133.15-23.06 43.027-52.772 80.716-89.428 112.816-29.334 25.688-61.768 46.757-97.371 62.893-36.815 16.685-75.149 27.846-115.272 32.886-3.8.477-7.487 1.849-11.227 2.805-26.354 0-52.708 0-79.74-.31-5.686-1.174-10.682-2.138-15.71-2.892-46.827-7.024-91.297-21.068-133.15-43.5-43.027-23.06-80.715-52.772-112.816-89.428-25.688-29.334-46.756-61.769-62.892-97.372-16.686-36.814-27.846-75.148-32.886-115.27-.478-3.8-1.85-7.488-2.806-11.228 0-26.354 0-52.708.31-79.74 1.175-5.686 2.138-10.682 2.892-15.71 7.024-46.828 21.069-91.298 43.5-133.15 23.062-43.027 52.773-80.716 89.429-112.816 29.334-25.688 61.768-46.757 97.371-62.892C271.317 20.008 309.65 8.845 349.773 3.806c3.8-.477 7.487-1.85 11.227-2.806m60.5 329.927h-75.568c0 2.787-.095 4.773.015 6.748 1.346 24.105 2.155 48.257 4.223 72.3 3.096 36 15.201 69.06 34.808 99.402 20.603 31.883 48.555 55.454 82.169 72.54 35.974 18.288 74.352 27.929 114.466 30.825 8.71.629 17.505.092 26.687.092v-5.429c0-28.997-.12-57.995.117-86.99.04-4.912-1.708-6.048-6.204-6.394-14.11-1.086-28.235-2.263-42.258-4.125-21.776-2.89-42.108-10.776-60.288-22.638-20.412-13.32-32.288-34.105-42.521-55.691-.325-.685-.214-1.577-.357-2.816 2.043-.09 3.835-.231 5.627-.235 9.833-.023 19.672.226 29.496-.054 38.698-1.105 70.33-17.083 93.76-47.555 23.293-30.294 26.928-65.429 19.641-101.753-7.944-39.6-32.384-66.672-68.117-84.097-16.39-7.992-33.568-11.534-52.084-11.441-92.988.47-185.98.215-278.971.215h-7.285v301.79h98.474V281.467c1.73-.127 2.877-.284 4.022-.285 62.16-.012 124.322-.021 186.482.03 2.127.002 4.373.29 6.36 1.009 9.941 3.59 18.252 18.21 16.329 28.416-1.881 9.98-14.56 20.279-25.03 20.286-20.997.014-41.995.004-63.993.004z"/><path d="M360.531 1c-3.27.957-6.958 2.329-10.758 2.806-40.123 5.039-78.456 16.202-115.27 32.886-35.604 16.135-68.038 37.204-97.372 62.892-36.656 32.1-66.367 69.789-89.428 112.816-22.432 41.852-36.477 86.322-43.5 133.15-.755 5.028-1.718 10.024-2.894 15.242C1 241.072 1 121.146 1 1h359.531zM801 360.531c-.94-3.105-2.307-6.627-2.752-10.261-5.652-46.09-19.262-89.762-40.266-131.08-14.304-28.136-31.815-54.193-52.379-78.225-32.954-38.514-71.762-69.581-116.46-93.465C546.073 24.488 500.367 10 451.97 3.81c-3.554-.455-7.038-1.448-10.763-2.5C560.928 1 680.854 1 801 1v359.531zM1 441.47c.957 3.27 2.328 6.958 2.806 10.758 5.04 40.123 16.2 78.457 32.886 115.271 16.136 35.603 37.204 68.038 62.892 97.372 32.1 36.656 69.79 66.367 112.816 89.428 41.853 22.432 86.323 36.476 133.15 43.5 5.028.754 10.024 1.718 15.242 2.893C241.072 801 121.146 801 1 801V441.469zM441.469 801c3.27-.956 6.958-2.328 10.758-2.805 40.123-5.04 78.457-16.201 115.272-32.886 35.603-16.136 68.037-37.205 97.37-62.893 36.657-32.1 66.368-69.789 89.429-112.816 22.431-41.853 36.475-86.322 43.5-133.15.755-5.028 1.718-10.024 2.893-15.242C801 560.928 801 680.854 801 801H441.469z"/><path fill="#00E07C" d="M422 330.927c21.498 0 42.496.01 63.494-.004 10.468-.007 23.148-10.305 25.029-20.286 1.923-10.207-6.388-24.826-16.328-28.416-1.988-.718-4.234-1.007-6.36-1.009-62.161-.051-124.322-.042-186.483-.03-1.145 0-2.291.158-4.022.285v204.154h-98.474V183.83h7.285c92.99 0 185.983.254 278.971-.215 18.516-.093 35.694 3.449 52.084 11.441 35.733 17.425 60.173 44.497 68.117 84.097 7.287 36.324 3.652 71.459-19.64 101.753-23.43 30.472-55.063 46.45-93.76 47.555-9.825.28-19.664.031-29.497.054-1.792.004-3.584.146-5.627.235.143 1.24.032 2.13.357 2.816 10.233 21.586 22.11 42.371 42.521 55.69 18.18 11.863 38.512 19.749 60.288 22.64 14.023 1.86 28.148 3.038 42.258 4.124 4.496.346 6.244 1.482 6.204 6.394-.237 28.995-.117 57.993-.117 86.99v5.429c-9.182 0-17.977.537-26.687-.092-40.114-2.896-78.492-12.537-114.466-30.824-33.614-17.087-61.566-40.658-82.169-72.541-19.607-30.342-31.712-63.401-34.808-99.402-2.068-24.043-2.877-48.195-4.223-72.3-.11-1.975-.015-3.961-.015-6.748H422z"/></svg>
